X: 1
T: There Was A Lad Born In Kyle
Z: Falkbeer
S: https://thesession.org/tunes/6927#setting6927
R: reel
M: 4/4
L: 1/8
K: Dmaj
A | "D"DD AD/E/ "A7"FE EF/E/ | "D"DD AD/E/ FdA2|
"G"B/c/d/A/ "D"F/G/A/F/ "Em"B/A/G/F/ "A7"EF/E/ | "D"Dd "A7"A/B/A/G/ "D"F2D>A |
dd d/e/f/d/ "Em"e/d/e/f/ "A7"ed/B/ | "D"Ad d/e/f/e/ dA BA |
"G"B/c/d/A/ "D"F/G/A/F/ "Em"B/A/G/F/ "A7"EF/E/ | "D"Dd "A7"A/B/A/G/ "D"F2D |]
